www/assets/icons/paid.svg

<svg xmlns="http://www.w3.org/2000/svg" width="24" height="24" viewBox="0 0 24 24" fill='currentColor'><path d="M12 2C6.48 2 2 6.48 2 12s4.48 10 10 10 10-4.48 10-10S17.52 2 12 2m.88 15.76V19h-1.75v-1.29c-.74-.18-2.39-.77-3.02-2.96l1.65-.67c.06.22.58 2.09 2.4 2.09.93 0 1.98-.48 1.98-1.61 0-.96-.7-1.46-2.28-2.03-1.1-.39-3.35-1.03-3.35-3.31 0-.1.01-2.4 2.62-2.96V5h1.75v1.24c1.84.32 2.51 1.79 2.66 2.23l-1.58.67c-.11-.35-.59-1.34-1.9-1.34-.7 0-1.81.37-1.81 1.39 0 .95.86 1.31 2.64 1.9 2.4.83 3.01 2.05 3.01 3.45 0 2.63-2.5 3.13-3.02 3.22"/></svg>

<svg width="24" height="24" viewBox="0 0 24 24" xmlns="http://www.w3.org/2000/svg" fill='currentColor'><path d="M12 2C6.48 2 2 6.48 2 12C2 17.52 6.48 22 12 22C17.52 22 22 17.52 22 12C22 6.48 17.52 2 12 2ZM12.88 17.76V19H11.13V17.71C10.39 17.53 8.74 16.94 8.11 14.75L9.76 14.08C9.82 14.3 10.34 16.17 12.16 16.17C13.09 16.17 14.14 15.69 14.14 14.56C14.14 13.6 13.44 13.1 11.86 12.53C10.76 12.14 8.51 11.5 8.51 9.22C8.51 9.12 8.52 6.82 11.13 6.26V5H12.88V6.24C14.72 6.56 15.39 8.03 15.54 8.47L13.96 9.14C13.85 8.79 13.37 7.8 12.06 7.8C11.36 7.8 10.25 8.17 10.25 9.19C10.25 10.14 11.11 10.5 12.89 11.09C15.29 11.92 15.9 13.14 15.9 14.54C15.9 17.17 13.4 17.67 12.88 17.76Z"/></svg>
